src/assets/images/partner-logo-4.svg

<svg width="88" height="33" viewBox="0 0 88 33" fill="none" xmlns="http://www.w3.org/2000/svg">
<path d="M11.345 32.3131C9.68435 32.3131 8.19969 32.023 6.89238 31.4426C5.58641 30.8623 4.47191 30.0724 3.54953 29.0729C2.62851 28.0721 1.93521 26.9355 1.46966 25.6633C1.00344 24.3898 0.770996 23.0484 0.770996 21.6385C0.793837 19.4999 1.14048 17.6749 1.81093 16.1629C2.48273 14.6515 3.36949 13.4237 4.47124 12.4793C5.57432 11.5355 6.78556 10.8477 8.1043 10.4158C9.42235 9.9846 10.7303 9.76831 12.0276 9.76831C13.2563 9.76831 14.4044 9.93959 15.4725 10.2815C16.542 10.622 17.457 11.0942 18.2188 11.6974C18.98 12.2993 19.4744 13.0207 19.7021 13.8603C19.8614 14.3835 19.8614 14.9128 19.7021 15.4482C19.5423 15.9822 19.2352 16.4765 18.7804 16.9313C18.3485 17.3397 17.8426 17.6406 17.2622 17.834C16.6831 18.0275 16.1443 18.1585 15.6445 18.2263C14.6194 18.3412 13.7883 18.1995 13.1508 17.8018C12.5146 17.4028 12.1794 16.8735 12.1458 16.2139C12.1115 15.555 12.4589 14.9075 13.1884 14.2714C13.3456 14.1337 13.5095 13.8999 13.6802 13.5701C13.8522 13.241 13.9771 12.889 14.0564 12.5142C14.137 12.1381 14.1195 11.7968 14.0053 11.4905C13.8925 11.1842 13.6426 10.974 13.2556 10.8591C12.5731 10.6785 11.8677 10.8665 11.1408 11.4234C10.4132 11.9809 9.75422 12.7654 9.16304 13.777C8.57186 14.7872 8.10497 15.8955 7.76302 17.1006C7.58164 17.8065 7.42242 18.6992 7.28471 19.7793C7.14833 20.8594 7.10265 22.0026 7.14766 23.2076C7.19402 24.4113 7.38212 25.5767 7.71197 26.7031C8.04115 27.8282 8.58127 28.8116 9.33233 29.6532C9.85499 30.2215 10.4126 30.6359 11.0038 30.8972C11.5949 31.1592 12.1633 31.2559 12.7101 31.1874C13.3241 31.1195 13.7218 30.8475 13.9032 30.3706C14.0859 29.8923 14.1027 29.3241 13.9543 28.6645C13.8072 28.0035 13.5458 27.3607 13.1696 26.7354C12.7948 26.1107 12.3688 25.6277 11.8905 25.2872C12.7773 24.5819 13.6076 24.0755 14.3815 23.7692C15.1554 23.4629 15.8602 23.3097 16.4963 23.3097C17.3381 23.3097 18.0092 23.5374 18.509 23.9922C19.0089 24.4456 19.2923 25.042 19.3609 25.7816C19.4287 26.5198 19.2131 27.3211 18.7133 28.1862C17.9407 29.4813 16.8893 30.4935 15.5585 31.2223C14.227 31.9491 12.823 32.3131 11.345 32.3131Z" fill="#808991"/>
<path d="M30.2745 31.6312H21.302C21.8032 29.5396 22.1787 27.6467 22.4279 25.954C22.6785 24.26 22.8041 22.6224 22.8041 21.0426C22.8041 19.4614 22.6785 17.8238 22.4279 16.1311C22.1787 14.4371 21.8032 12.5436 21.302 10.4513H30.2745C29.6383 12.9983 29.2003 15.2499 28.9604 17.2059C28.722 19.1605 28.6709 21.1259 28.8073 23.1034C28.8751 21.5813 29.0686 20.0693 29.3877 18.5681C29.7061 17.0675 30.167 15.6798 30.7689 14.4062C31.3722 13.1327 32.1622 12.0815 33.139 11.2519C34.1171 10.4231 35.3109 9.92869 36.721 9.76883C38.0626 9.60963 39.1193 9.75741 39.8919 10.2121C40.6658 10.6676 41.1663 11.2466 41.394 11.9505C41.5996 12.5886 41.5606 13.2657 41.2758 13.9817C40.9909 14.6984 40.473 15.3298 39.7226 15.8759C38.9715 16.4206 37.9712 16.7726 36.721 16.9318C35.5387 17.0682 34.623 16.864 33.9747 16.3192C33.3278 15.7731 33.1182 15.1128 33.3459 14.3391C33.4588 13.9757 33.5031 13.6747 33.4803 13.4363C33.4588 13.1965 33.3567 13.0763 33.1739 13.0763C33.0376 13.0763 32.8783 13.1562 32.6956 13.3154C32.1508 13.8386 31.6449 14.7031 31.1774 15.9081C30.7111 17.1138 30.3363 18.5237 30.0514 20.1371C29.7679 21.7512 29.6094 23.4459 29.5758 25.2205C29.5415 26.9938 29.6725 28.7214 29.9681 30.4034C30.0125 30.6075 30.0635 30.8131 30.1213 31.0186C30.1784 31.2228 30.2295 31.427 30.2745 31.6312Z" fill="#808991"/>
<path d="M52.6145 28.5623C51.9783 29.813 51.1083 30.7567 50.0052 31.3942C48.9015 32.0296 47.7702 32.348 46.6113 32.348C45.4968 32.348 44.4508 32.0639 43.4727 31.4963C42.4946 30.9267 41.7489 30.0682 41.237 28.9196C40.7264 27.7717 40.5968 26.345 40.8473 24.6396C41.0744 23.1155 41.6542 21.7963 42.5859 20.6819C43.517 19.5683 44.6423 18.7045 45.961 18.0919C47.2811 17.478 48.624 17.1703 49.9891 17.1703C50.8288 17.1703 51.6471 17.2959 52.4425 17.5465C53.2392 17.7957 53.9675 18.1819 54.6272 18.7045C54.9456 18.067 55.1787 17.2939 55.3258 16.3858C55.4743 15.4763 55.389 14.4983 55.0705 13.4518C54.8213 12.5887 54.4236 11.9297 53.8774 11.4743C53.3306 11.0196 52.8079 10.7919 52.3081 10.7919C51.944 10.7919 51.637 10.9114 51.3864 11.1492C51.1372 11.3877 50.9894 11.7578 50.943 12.2589C50.8517 13.3947 50.5951 14.276 50.1745 14.9027C49.7553 15.528 49.2555 15.9713 48.6751 16.2326C48.0946 16.4926 47.5203 16.6571 46.9526 16.727C45.9295 16.8398 45.1105 16.6753 44.4965 16.2326C43.8818 15.7886 43.5681 15.2197 43.556 14.5265C43.5453 13.8333 43.904 13.1683 44.6336 12.5302C45.6795 11.5993 46.8787 10.8953 48.2317 10.4184C49.584 9.94017 50.931 9.70105 52.2732 9.70105C53.4341 9.70105 54.5371 9.88845 55.5838 10.2626C56.6298 10.6374 57.5387 11.2057 58.3113 11.9687C59.0852 12.7304 59.6421 13.7017 59.9827 14.8839C60.3246 16.066 60.3703 17.4645 60.1197 19.0779C59.9599 20.1943 59.8295 21.3657 59.7274 22.5923C59.6253 23.8194 59.7153 25.1729 59.9988 26.652C60.2837 28.1297 60.9152 29.7895 61.8933 31.6306H52.9208C52.7629 31.108 52.6662 30.5908 52.6306 30.0803C52.5963 29.5685 52.591 29.062 52.6145 28.5623ZM47.8044 23.6831C47.5088 24.8653 47.4121 25.8943 47.5142 26.7702C47.6163 27.6461 47.8609 28.3232 48.2478 28.8014C48.6348 29.2783 49.0782 29.5161 49.578 29.5161C50.1006 29.5161 50.6461 29.2273 51.2145 28.6483C51.7841 28.0679 52.296 27.1531 52.7515 25.9024C53.2063 24.6503 53.5241 23.0242 53.7055 21.0232C53.7055 20.2279 53.5456 19.6489 53.2271 19.2848C52.9101 18.9214 52.5238 18.7394 52.069 18.7394C51.3414 18.7394 50.5453 19.1659 49.6801 20.0183C48.8162 20.8714 48.1914 22.0925 47.8044 23.6831Z" fill="#808991"/>
<path d="M62.6733 10.4518H63.8342C63.5615 9.22325 63.5279 8.0068 63.7321 6.80312C63.9363 5.5981 64.3562 4.50054 64.9924 3.51181C65.6299 2.52173 66.4824 1.71367 67.5506 1.08833C68.6201 0.463647 69.8944 0.104961 71.3744 0.0136102C72.8739 -0.0542311 74.0327 0.133844 74.8516 0.577836C75.6699 1.02048 76.1589 1.6062 76.3188 2.33499C76.478 3.06244 76.296 3.81273 75.7733 4.58652C75.25 5.35897 74.4082 6.04007 73.2474 6.63117C72.0879 7.22226 70.5992 7.59774 68.7813 7.75693C68.8491 7.03016 68.7799 6.45585 68.5744 6.0347C68.3701 5.61422 68.1095 5.30121 67.7924 5.09701C67.2691 4.77863 66.8022 4.61876 66.3924 4.61876C65.7327 4.61876 65.3014 4.94319 65.0972 5.59138C64.8929 6.24024 65.1429 7.05299 65.8469 8.03098C66.3695 8.73492 66.9896 9.26892 67.7064 9.63231C68.4225 9.99637 69.2468 10.2691 70.1786 10.4518H75.9775L75.8082 11.4754H72.5675C72.112 13.4086 71.7761 15.1765 71.5598 16.7792C71.3449 18.3825 71.2481 19.9402 71.2696 21.4515C71.2925 22.9635 71.4288 24.5379 71.6781 26.1749C71.9286 27.8125 72.3048 29.6314 72.8067 31.6317H63.8342C64.3125 29.6314 64.682 27.8125 64.944 26.1749C65.2053 24.5379 65.3417 22.9635 65.3525 21.4515C65.3632 19.9402 65.2665 18.3825 65.0622 16.7792C64.858 15.1765 64.5282 13.4086 64.0734 11.4754H62.9824L62.6733 10.4518Z" fill="#808991"/>
<path d="M87.0975 28.0843C86.2551 29.5177 85.1802 30.5924 83.8729 31.3084C82.5649 32.0231 81.2972 32.3805 80.0706 32.3805C79.0011 32.3805 78.0505 32.1131 77.2195 31.5798C76.3898 31.0465 75.8275 30.2445 75.5319 29.1751C75.2363 28.1058 75.3499 26.7758 75.8732 25.1853C76.3958 23.5698 76.7479 22.0464 76.9292 20.615C77.112 19.1823 77.1805 17.8067 77.1362 16.4881C77.0676 14.7363 76.7438 13.5085 76.1634 12.8045C75.5843 12.0993 74.8064 11.6559 73.8282 11.4746L74.0674 10.4509C74.5202 10.4509 75.1107 10.4052 75.8383 10.3139C76.5671 10.2225 77.3464 10.0466 78.1761 9.78459C79.0071 9.5233 79.826 9.14782 80.6322 8.65883C81.4397 8.16983 82.1618 7.53441 82.798 6.75121C83.4356 5.96667 83.9139 5.00614 84.233 3.86829H85.2541C84.9814 4.98263 84.7489 6.0916 84.5554 7.19453C84.362 8.29611 84.2088 9.38157 84.0959 10.4509H87.3689L87.5409 11.4746H83.9938C83.8339 13.2694 83.7768 15.048 83.8218 16.8105C83.8682 18.5731 84.016 20.3188 84.2652 22.0471C83.6741 22.1384 82.9687 22.3661 82.1504 22.7295C81.3315 23.0936 80.5247 23.5483 79.7293 24.0944C78.9339 24.6392 78.2574 25.2471 77.7005 25.9188C77.1429 26.5891 76.8244 27.2883 76.7438 28.0171C76.6646 28.7446 76.9319 29.472 77.5446 30.1988C77.863 30.5629 78.2386 30.853 78.6705 31.0693C79.1038 31.2843 79.5365 31.3917 79.9684 31.3917C80.3997 31.3917 80.786 31.2896 81.1266 31.0854C81.7406 30.6985 82.0819 30.1303 82.1504 29.3793C82.2183 28.629 82.0873 27.8613 81.7581 27.0768C81.4282 26.2922 80.9452 25.6622 80.3097 25.1853C81.1965 24.48 82.0255 23.9735 82.798 23.6672C83.5719 23.3596 84.2767 23.2051 84.9128 23.2051C85.7546 23.2051 86.4257 23.4388 86.9255 23.9063C87.4267 24.3725 87.7055 24.975 87.7612 25.7146C87.8183 26.4528 87.5973 27.2427 87.0975 28.0843Z" fill="#808991"/>
</svg>

<svg xmlns="http://www.w3.org/2000/svg" width="88" height="33" fill="none" viewBox="0 0 88 33"><path fill="#808991" d="M11.345 32.313q-2.49 0-4.453-.87a10.03 10.03 0 0 1-5.422-5.78A11.6 11.6 0 0 1 .77 21.64q.035-3.209 1.04-5.476 1.008-2.267 2.66-3.684a10.7 10.7 0 0 1 3.633-2.063 12.6 12.6 0 0 1 3.924-.648q1.842 0 3.444.513 1.605.512 2.747 1.416t1.483 2.163q.24.786 0 1.588t-.922 1.483q-.647.614-1.518.903a9 9 0 0 1-1.617.392q-1.539.173-2.494-.424-.955-.599-1.005-1.588-.052-.988 1.042-1.943.236-.206.492-.7.258-.495.376-1.057.121-.564-.05-1.023-.17-.46-.75-.632-1.024-.27-2.115.564-1.092.837-1.978 2.354a14.3 14.3 0 0 0-1.4 3.324q-.271 1.058-.478 2.678a21 21 0 0 0-.137 3.429q.069 1.805.564 3.495a7.55 7.55 0 0 0 1.62 2.95q.784.853 1.672 1.244.886.393 1.706.29.921-.102 1.193-.816.274-.718.051-1.706a6.5 6.5 0 0 0-.784-1.93q-.562-.936-1.28-1.448 1.33-1.057 2.492-1.518 1.16-.46 2.114-.46 1.263 0 2.013.683.75.68.852 1.79.102 1.107-.648 2.404a8.2 8.2 0 0 1-3.155 3.036 8.67 8.67 0 0 1-4.213 1.091M30.275 31.631h-8.973q.752-3.137 1.126-5.677a33.6 33.6 0 0 0 .376-4.911q0-2.373-.376-4.912-.375-2.54-1.126-5.68h8.973q-.955 3.82-1.315 6.755a31 31 0 0 0-.153 5.897 28 28 0 0 1 .58-4.535q.48-2.25 1.382-4.162.904-1.91 2.37-3.154t3.582-1.483q2.013-.24 3.17.443 1.162.683 1.503 1.739.31.957-.118 2.03-.428 1.076-1.553 1.895-1.127.817-3.002 1.056-1.773.204-2.746-.613-.97-.819-.63-1.98.17-.545.135-.903-.032-.36-.306-.36-.205 0-.478.24-.817.785-1.519 2.592-.698 1.809-1.126 4.23a33 33 0 0 0-.475 5.083q-.052 2.66.392 5.182.067.307.153.616.086.306.154.612M52.615 28.562q-.956 1.877-2.61 2.832-1.656.954-3.394.954a6.15 6.15 0 0 1-3.138-.852q-1.468-.854-2.236-2.576-.765-1.722-.39-4.28.34-2.287 1.739-3.958a9.64 9.64 0 0 1 3.375-2.59q1.98-.922 4.028-.922 1.26 0 2.454.377 1.195.374 2.184 1.157.478-.956.699-2.318.222-1.365-.255-2.934-.374-1.294-1.194-1.978-.82-.681-1.569-.682-.546 0-.922.357-.374.359-.443 1.11-.137 1.704-.768 2.644-.63.937-1.5 1.33-.87.39-1.722.494-1.536.17-2.457-.494-.921-.666-.94-1.707-.016-1.04 1.078-1.996a10.7 10.7 0 0 1 3.598-2.112q2.028-.717 4.041-.717 1.741 0 3.31.562a7.4 7.4 0 0 1 2.728 1.706q1.16 1.142 1.672 2.915.513 1.773.137 4.194a60 60 0 0 0-.393 3.514q-.153 1.84.272 4.06.427 2.217 1.894 4.979h-8.972a7 7 0 0 1-.29-1.55 13 13 0 0 1-.017-1.519m-4.81-4.879q-.444 1.773-.29 3.087.152 1.314.733 2.031.58.715 1.33.715.784 0 1.636-.868.855-.87 1.538-2.746.681-1.878.953-4.879 0-1.192-.478-1.738-.476-.546-1.158-.546-1.092 0-2.389 1.28-1.296 1.279-1.876 3.664M62.673 10.452h1.161a9.4 9.4 0 0 1-.102-3.649 8.7 8.7 0 0 1 1.26-3.291q.956-1.485 2.559-2.424Q69.155.151 71.374.014q2.25-.102 3.478.564 1.227.663 1.467 1.757.239 1.09-.546 2.252-.784 1.158-2.526 2.044-1.74.887-4.466 1.126.102-1.09-.207-1.722-.306-.631-.782-.938-.785-.477-1.4-.478-.989 0-1.295.972-.306.974.75 2.44.785 1.056 1.86 1.601 1.074.546 2.472.82h5.799l-.17 1.023h-3.24q-.684 2.901-1.008 5.304a32 32 0 0 0-.29 4.672q.035 2.268.408 4.724.376 2.456 1.129 5.457h-8.973q.717-3 1.11-5.457.392-2.456.409-4.724a35 35 0 0 0-.29-4.672q-.307-2.403-.99-5.304h-1.09z"/><path fill="#808991" d="M87.098 28.084q-1.265 2.15-3.225 3.224-1.962 1.072-3.802 1.072-1.605 0-2.852-.8-1.244-.8-1.687-2.405t.341-3.99q.785-2.423 1.056-4.57a26 26 0 0 0 .207-4.127q-.102-2.628-.973-3.683-.868-1.06-2.335-1.33l.24-1.024q.679 0 1.77-.137a13.3 13.3 0 0 0 2.338-.53q1.247-.39 2.456-1.125a8.4 8.4 0 0 0 2.166-1.908q.957-1.176 1.435-2.883h1.021a51 51 0 0 0-.699 3.327 48 48 0 0 0-.46 3.256h3.274l.172 1.024h-3.547a47 47 0 0 0-.172 5.336q.07 2.643.443 5.236-.886.138-2.115.683-1.228.546-2.42 1.364a9.8 9.8 0 0 0-2.03 1.825q-.836 1.005-.956 2.098-.119 1.092.8 2.182.479.546 1.127.87.65.323 1.297.323.648 0 1.159-.307.921-.58 1.023-1.706t-.392-2.302-1.448-1.892q1.329-1.057 2.488-1.518 1.161-.461 2.115-.462 1.263 0 2.013.701.751.699.835 1.809.085 1.107-.663 2.37"/></svg>
